X: 42232
T: Wayside Waggon, The
R: reel
M: 4/4
K: Dmajor
d2 d'b afed|c/B/A eA fAec|d/e/d d'b afed|cdeg f2:|
dBAG FGAF|E/F/E ec eBBc|dBAG F2 AF|Ddde f2:|

